X: 1
T: Saarijrven Liisa
C: Toivo Krki/Georg Malmsten
M: 3/4
L: 1/8
K: Bb
[|"Bb"[F2D2] [D4B,4] | [F2D2] [D4B,4] | [d2F2] [B4D4] | [F6D6] \
|     [F2D2] [D4B,4] | [B2D2] [D4B,4] | [F4D4] [=E2^C2] | "F7"[_E6=C6] |
| "F7"[E2C2] [C4A,4] | [E2C2] [C4A,4] | [A2C2] [F4A,4] | [E6C6] \
|     [A4F4] [G2E2] | [F4D4] [G2E2] | "Bb"[D6-B,6-] | [D6B,6] |
| "Bb"[F2D2] [D4B,4] | [F2D2] [D4B,4] | [d2F2] [B4D4] | [F6D6] \
| "Eb"[G2E2] [B2G2] [c2A2] | [c2A2] [B2G2] [G2E2] | "Bb"[F6-D6-] | [F4D4] D2 |
| "C7"C2 =E2 G2 | [BD][c=E] [A2C2] [G2B,] | "F"[c2A2C2] [A2F2] [F2C2] | C4 ^C2 \
| "Bb"D2 [B2D2] D2 | "C7"[=E2C2] D2 C2 | "F7"F6- | F2 z2 z2 |]
|:"Bb"[FD][FD] [D2B,2] [F2D2] | [B4D4] [F2D2] | "F7"[EC]>[FD] [E2C2] [D2B,2] | [C3A,3] [BG][AF][GE] \
|     [F2D2] [G2E2] | [E4C3] [F2D2] | "Bb"[D6-B,6-] | [D6B,6] |
"I"\
| "Bb"[FD][FD] [D2B,2] [F2D2] | [B4D4] [F2D2] | "F7"[EC]>[FD] [E2C2] [D2B,2] | [C3A,3] [BG][AF][GE] \
| FG AG FG | E4 A,2 | "Bb"B,2 z2 "F7"[F2E2A,2] | "Bb"[B2D2B,2] z2 z2 :|
